X: 1
T: Speed the Plough
M: 4/4
R: reel
K: G
D | ~G3B dedB | degd egdB | cecA (3Bcd BG | FAAF GFEF |
~G3B dedB | degd egdB | cecA B2BG |1 FAAF G3 :|2 FAAF G2||
|: Bd|~g3f gdBd | (3fga bg egdB | cecA (3Bcd BG | FAAF gfef |
~g3f gdBd | (3fga bg egdB |cecA (3Bcd BG |FAAF G2 :||
